tools/download-figma-icons/icons/solid/help.svg

<svg width="24" height="24" viewBox="0 0 24 24" fill="none" xmlns="http://www.w3.org/2000/svg">
<path fill-rule="evenodd" clip-rule="evenodd" d="M10.9225 16.8866C10.9562 16.3211 11.4294 15.8831 11.9957 15.8921C12.5619 15.9019 13.0201 16.3541 13.0359 16.9196C13.0479 17.3088 12.8447 17.6733 12.5064 17.8683C12.1697 18.0618 11.7519 18.0558 11.4212 17.8503C11.0905 17.6456 10.8985 17.2751 10.9225 16.8866ZM10.2452 9.33134C10.21 9.48134 10.1845 9.63359 10.1687 9.78733C10.1687 9.88108 10.126 9.90733 10.0337 9.90433H9.15626H8.25779C8.20529 9.90433 8.16179 9.90433 8.16704 9.82858C8.17154 9.21735 8.29904 8.61512 8.54128 8.05488C8.86752 7.35441 9.43 6.79192 10.1297 6.46568C11.2637 5.91745 12.5717 5.8522 13.7536 6.28569C14.5996 6.55868 15.2813 7.19316 15.6113 8.01889C15.8086 8.53862 15.8776 9.0981 15.8153 9.65084C15.7538 10.3303 15.4403 10.9618 14.9378 11.4215C14.5531 11.7935 14.1406 12.1415 13.7371 12.4895C13.4214 12.725 13.1731 13.04 13.0171 13.4022C12.9204 13.6842 12.8671 13.9812 12.8589 14.2797C12.8589 14.3877 12.8424 14.4942 12.8371 14.5992C12.8371 14.6539 12.8176 14.6809 12.7577 14.6809H11.1669C11.1167 14.6809 11.0905 14.6667 11.0927 14.6112C11.083 14.0915 11.1355 13.5725 11.2502 13.0655C11.4069 12.5375 11.7099 12.0643 12.1247 11.7028C12.4794 11.3735 12.8326 11.0428 13.1709 10.6941C13.4559 10.4061 13.6501 10.0408 13.7274 9.64334C13.8594 8.96836 13.6051 8.46962 12.9601 8.23488C12.3369 7.99639 11.6432 8.02339 11.0395 8.30688C10.6285 8.50487 10.3352 8.88436 10.2452 9.33134ZM24 11.9996C24 5.37209 18.6264 0 12.0004 0C5.37282 0 0.0007324 5.37209 0.0007324 11.9996C0.0007324 18.6272 5.37282 23.9993 12.0004 23.9993C15.1825 23.9993 18.2342 22.7356 20.4849 20.4849C22.7355 18.2349 24 15.1825 24 11.9996Z" fill="black"/>
</svg>

<svg width="24" height="24" viewBox="0 0 24 24" fill="none" xmlns="http://www.w3.org/2000/svg"><path fill-rule="evenodd" clip-rule="evenodd" d="M10.922 16.887a1.058 1.058 0 1 1 2.112.126 1.058 1.058 0 0 1-2.112-.126Zm-.677-7.556c-.035.15-.06.303-.076.456 0 .094-.043.12-.135.117H8.258c-.053 0-.096 0-.091-.075a4.55 4.55 0 0 1 .374-1.774c.327-.7.889-1.263 1.589-1.59a4.649 4.649 0 0 1 3.624-.18A2.987 2.987 0 0 1 15.61 8.02c.198.52.267 1.08.204 1.632a2.734 2.734 0 0 1-.877 1.77c-.385.373-.797.72-1.2 1.069-.317.235-.565.55-.72.912a2.96 2.96 0 0 0-.16.878c0 .108-.016.214-.02.32 0 .054-.02.08-.08.08h-1.591c-.05 0-.076-.013-.074-.069a6.48 6.48 0 0 1 .157-1.546c.157-.527.46-1 .875-1.362.354-.33.708-.66 1.046-1.009a2.04 2.04 0 0 0 .556-1.05c.132-.676-.122-1.174-.767-1.41a2.455 2.455 0 0 0-1.92.073 1.455 1.455 0 0 0-.795 1.024ZM24 12c0-6.628-5.374-12-12-12C5.373 0 0 5.372 0 12c0 6.627 5.373 12 12 12a11.998 11.998 0 0 0 12-12Z" fill="currentColor"/></svg>
